symbols/web/attribution/materialsymbolsoutlined/attribution_wght200gradN25_20px.svg

<svg xmlns="http://www.w3.org/2000/svg" height="20" width="20"><path d="M9.271 14.812h1.479v-3.291h1.062V8.458q0-.437-.406-.645Q11 7.604 10 7.604q-1 0-1.396.209-.396.208-.396.645v3.063h1.063ZM10 17.375q-1.542 0-2.885-.573-1.344-.573-2.344-1.573-1-1-1.573-2.344-.573-1.343-.573-2.885 0-1.521.583-2.875.584-1.354 1.573-2.344.99-.989 2.334-1.573Q8.458 2.625 10 2.625q1.521 0 2.875.583 1.354.584 2.344 1.573.989.99 1.573 2.344.583 1.354.583 2.875 0 1.542-.583 2.885-.584 1.344-1.573 2.334-.99.989-2.344 1.573-1.354.583-2.875.583Zm0-.854q2.729 0 4.625-1.896T16.521 10q0-2.729-1.896-4.625T10 3.479q-2.729 0-4.625 1.896T3.479 10q0 2.729 1.896 4.625T10 16.521Zm0-9.417q.375 0 .667-.302.291-.302.291-.677 0-.375-.291-.667-.292-.291-.667-.291-.375 0-.667.291-.291.292-.291.667 0 .375.291.677.292.302.667.302ZM10 10Z"/></svg>

<svg xmlns="http://www.w3.org/2000/svg" height="20" width="20"><path d="M9.271 14.812H10.75V11.521H11.812V8.458Q11.812 8.021 11.406 7.813Q11 7.604 10 7.604Q9 7.604 8.604 7.813Q8.208 8.021 8.208 8.458V11.521H9.271ZM10 17.375Q8.458 17.375 7.115 16.802Q5.771 16.229 4.771 15.229Q3.771 14.229 3.198 12.885Q2.625 11.542 2.625 10Q2.625 8.479 3.208 7.125Q3.792 5.771 4.781 4.781Q5.771 3.792 7.115 3.208Q8.458 2.625 10 2.625Q11.521 2.625 12.875 3.208Q14.229 3.792 15.219 4.781Q16.208 5.771 16.792 7.125Q17.375 8.479 17.375 10Q17.375 11.542 16.792 12.885Q16.208 14.229 15.219 15.219Q14.229 16.208 12.875 16.792Q11.521 17.375 10 17.375ZM10 16.521Q12.729 16.521 14.625 14.625Q16.521 12.729 16.521 10Q16.521 7.271 14.625 5.375Q12.729 3.479 10 3.479Q7.271 3.479 5.375 5.375Q3.479 7.271 3.479 10Q3.479 12.729 5.375 14.625Q7.271 16.521 10 16.521ZM10 7.104Q10.375 7.104 10.667 6.802Q10.958 6.5 10.958 6.125Q10.958 5.75 10.667 5.458Q10.375 5.167 10 5.167Q9.625 5.167 9.333 5.458Q9.042 5.75 9.042 6.125Q9.042 6.5 9.333 6.802Q9.625 7.104 10 7.104ZM10 10Q10 10 10 10Q10 10 10 10Q10 10 10 10Q10 10 10 10Q10 10 10 10Q10 10 10 10Q10 10 10 10Q10 10 10 10Z"/></svg>
